packages/dnb-eufemia/assets/icons/recurring.svg

<svg width="16" height="16" viewBox="0 0 16 16" fill="none" xmlns="http://www.w3.org/2000/svg">
<path d="M6.00581 1C6.00581 0.585786 5.67003 0.25 5.25581 0.25C4.8416 0.25 4.50581 0.585786 4.50581 1H6.00581ZM4.50581 4.25581C4.50581 4.67003 4.8416 5.00581 5.25581 5.00581C5.67003 5.00581 6.00581 4.67003 6.00581 4.25581H4.50581ZM11.5 1C11.5 0.585786 11.1642 0.25 10.75 0.25C10.3358 0.25 10 0.585786 10 1H11.5ZM10 4.25581C10 4.67003 10.3358 5.00581 10.75 5.00581C11.1642 5.00581 11.5 4.67003 11.5 4.25581H10ZM3 15.75C3.41421 15.75 3.75 15.4142 3.75 15C3.75 14.5858 3.41421 14.25 3 14.25V15.75ZM14.25 4C14.25 4.41421 14.5858 4.75 15 4.75C15.4142 4.75 15.75 4.41421 15.75 4H14.25ZM4 8.25C4.41421 8.25 4.75 7.91421 4.75 7.5C4.75 7.08579 4.41421 6.75 4 6.75V8.25ZM6.51378 9.43576C6.37742 9.82688 6.58394 10.2545 6.97506 10.3909C7.36618 10.5272 7.7938 10.3207 7.93016 9.92958L6.51378 9.43576ZM14.778 9.68267L14.0698 9.92958L14.142 10.1368L14.3146 10.2724L14.778 9.68267ZM15.4862 12.5642C15.6225 12.1731 15.416 11.7455 15.0249 11.6091C14.6338 11.4728 14.2062 11.6793 14.0698 12.0704L15.4862 12.5642ZM7.22197 12.3173L7.93016 12.0704L7.85794 11.8633L7.68545 11.7277L7.22197 12.3173ZM15 9.85714V10.6071C15.4142 10.6071 15.75 10.2714 15.75 9.85714H15ZM15.75 7.38095C15.75 6.96674 15.4142 6.63095 15 6.63095C14.5858 6.63095 14.25 6.96674 14.25 7.38095H15.75ZM12.5238 9.10714C12.1096 9.10714 11.7738 9.44293 11.7738 9.85714C11.7738 10.2714 12.1096 10.6071 12.5238 10.6071V9.10714ZM9.47619 12.8929C9.8904 12.8929 10.2262 12.5571 10.2262 12.1429C10.2262 11.7286 9.8904 11.3929 9.47619 11.3929V12.8929ZM7 12.1429V11.3929C6.58579 11.3929 6.25 11.7286 6.25 12.1429H7ZM6.25 14.619C6.25 15.0333 6.58579 15.369 7 15.369C7.41421 15.369 7.75 15.0333 7.75 14.619H6.25ZM4.50581 1V2.62791H6.00581V1H4.50581ZM4.50581 2.62791V4.25581H6.00581V2.62791H4.50581ZM10 1V2.62791H11.5V1H10ZM10 2.62791V4.25581H11.5V2.62791H10ZM2 15.75H3V14.25H2V15.75ZM15.75 4V3.62791H14.25V4H15.75ZM14 1.87791H10.75V3.37791H14V1.87791ZM10.75 1.87791H5.25581V3.37791H10.75V1.87791ZM5.25581 1.87791H2V3.37791H5.25581V1.87791ZM0.25 3.62791V7.5H1.75V3.62791H0.25ZM0.25 7.5V14H1.75V7.5H0.25ZM1 8.25H4V6.75H1V8.25ZM15.75 3.62791C15.75 2.66141 14.9665 1.87791 14 1.87791V3.37791C14.1381 3.37791 14.25 3.48984 14.25 3.62791H15.75ZM2 14.25C1.86193 14.25 1.75 14.1381 1.75 14H0.25C0.25 14.9665 1.0335 15.75 2 15.75V14.25ZM2 1.87791C1.0335 1.87791 0.25 2.66141 0.25 3.62791H1.75C1.75 3.48984 1.86193 3.37791 2 3.37791V1.87791ZM7.93016 9.92958C8.37297 8.65953 9.58123 7.75 11 7.75V6.25C8.92354 6.25 7.16012 7.58192 6.51378 9.43576L7.93016 9.92958ZM11 7.75C12.4187 7.75 13.627 8.65953 14.0698 9.92958L15.4862 9.43576C14.8398 7.58192 13.0764 6.25 11 6.25V7.75ZM14.0698 12.0704C13.627 13.3405 12.4187 14.25 11 14.25V15.75C13.0764 15.75 14.8398 14.4181 15.4862 12.5642L14.0698 12.0704ZM11 14.25C9.58123 14.25 8.37297 13.3405 7.93016 12.0704L6.51378 12.5642C7.16012 14.4181 8.92354 15.75 11 15.75V14.25ZM15.75 9.85714V7.38095H14.25V9.85714H15.75ZM15 9.10714H12.5238V10.6071H15V9.10714ZM9.47619 11.3929H7V12.8929H9.47619V11.3929ZM6.25 12.1429V14.619H7.75V12.1429H6.25ZM14.3146 10.2724L14.5366 10.4468L15.4634 9.26746L15.2414 9.09298L14.3146 10.2724ZM7.68545 11.7277L7.46348 11.5532L6.53652 12.7325L6.75849 12.907L7.68545 11.7277Z" fill="black"/>
</svg>

<svg width="16" height="16" viewBox="0 0 16 16" fill="none" xmlns="http://www.w3.org/2000/svg"><path d="M6.006 1a.75.75 0 1 0-1.5 0h1.5Zm-1.5 3.256a.75.75 0 1 0 1.5 0h-1.5ZM11.5 1A.75.75 0 0 0 10 1h1.5ZM10 4.256a.75.75 0 0 0 1.5 0H10ZM3 15.75a.75.75 0 0 0 0-1.5v1.5ZM14.25 4a.75.75 0 0 0 1.5 0h-1.5ZM4 8.25a.75.75 0 0 0 0-1.5v1.5Zm2.514 1.186a.75.75 0 0 0 1.416.494l-1.416-.494Zm8.264.247-.708.247.072.207.173.135.463-.59Zm.708 2.881a.75.75 0 0 0-1.416-.494l1.416.494Zm-8.264-.247.708-.247-.072-.207-.173-.135-.463.59ZM15 9.857v.75a.75.75 0 0 0 .75-.75H15Zm.75-2.476a.75.75 0 0 0-1.5 0h1.5Zm-3.226 1.726a.75.75 0 0 0 0 1.5v-1.5Zm-3.048 3.786a.75.75 0 0 0 0-1.5v1.5ZM7 12.143v-.75a.75.75 0 0 0-.75.75H7Zm-.75 2.476a.75.75 0 1 0 1.5 0h-1.5ZM4.506 1v1.628h1.5V1h-1.5Zm0 1.628v1.628h1.5V2.628h-1.5ZM10 1v1.628h1.5V1H10Zm0 1.628v1.628h1.5V2.628H10ZM2 15.75h1v-1.5H2v1.5ZM15.75 4v-.372h-1.5V4h1.5ZM14 1.878h-3.25v1.5H14v-1.5Zm-3.25 0H5.256v1.5h5.494v-1.5Zm-5.494 0H2v1.5h3.256v-1.5ZM.25 3.628V7.5h1.5V3.628H.25Zm0 3.872V14h1.5V7.5H.25Zm.75.75h3v-1.5H1v1.5Zm14.75-4.622A1.75 1.75 0 0 0 14 1.878v1.5a.25.25 0 0 1 .25.25h1.5ZM2 14.25a.25.25 0 0 1-.25-.25H.25c0 .966.784 1.75 1.75 1.75v-1.5ZM2 1.878a1.75 1.75 0 0 0-1.75 1.75h1.5a.25.25 0 0 1 .25-.25v-1.5ZM7.93 9.93A3.252 3.252 0 0 1 11 7.75v-1.5a4.752 4.752 0 0 0-4.486 3.186l1.416.494ZM11 7.75c1.419 0 2.627.91 3.07 2.18l1.416-.494A4.752 4.752 0 0 0 11 6.25v1.5Zm3.07 4.32A3.252 3.252 0 0 1 11 14.25v1.5a4.752 4.752 0 0 0 4.486-3.186l-1.416-.494ZM11 14.25a3.252 3.252 0 0 1-3.07-2.18l-1.416.494A4.752 4.752 0 0 0 11 15.75v-1.5Zm4.75-4.393V7.381h-1.5v2.476h1.5Zm-.75-.75h-2.476v1.5H15v-1.5Zm-5.524 2.286H7v1.5h2.476v-1.5Zm-3.226.75v2.476h1.5v-2.476h-1.5Zm8.065-1.87.222.174.926-1.18-.222-.174-.926 1.18Zm-6.63 1.455-.222-.175-.926 1.18.221.174.927-1.18Z" fill="#000"/></svg>
